Target/Image/GitHub/Tauri.svg

<svg width="743" height="231" viewBox="0 0 743 231" fill="none" xmlns="http://www.w3.org/2000/svg">
	<path
		d="M305.729 181C304.643 181 303.665 180.62 302.795 179.859C302.035 178.99 301.654 178.012 301.654 176.925V92.491H272.64C271.554 92.491 270.576 92.1107 269.706 91.35C268.946 90.4807 268.565 89.5027 268.565 88.416V70.975C268.565 69.7797 268.946 68.8017 269.706 68.041C270.576 67.2804 271.554 66.9 272.64 66.9H360.334C361.53 66.9 362.508 67.2804 363.268 68.041C364.029 68.8017 364.409 69.7797 364.409 70.975V88.416C364.409 89.6114 364.029 90.5894 363.268 91.35C362.508 92.1107 361.53 92.491 360.334 92.491H331.32V176.925C331.32 178.012 330.94 178.99 330.179 179.859C329.419 180.62 328.441 181 327.245 181H305.729Z"
		fill="#F7F7F7" />
	<path
		d="M361.083 181C360.214 181 359.399 180.674 358.638 180.022C357.986 179.261 357.66 178.446 357.66 177.577C357.66 176.925 357.715 176.436 357.823 176.11L396.128 71.464C396.454 70.16 397.161 69.0734 398.247 68.204C399.334 67.3347 400.747 66.9 402.485 66.9H426.609C428.348 66.9 429.761 67.3347 430.847 68.204C431.934 69.0734 432.64 70.16 432.966 71.464L471.108 176.11L471.434 177.577C471.434 178.446 471.054 179.261 470.293 180.022C469.641 180.674 468.826 181 467.848 181H447.799C445.191 181 443.453 179.859 442.583 177.577L436.226 160.951H392.705L386.511 177.577C385.642 179.859 383.849 181 381.132 181H361.083ZM429.706 137.479L414.547 94.447L399.388 137.479H429.706Z"
		fill="#F7F7F7" />
	<path
		d="M529.657 182.63C514.335 182.63 502.327 178.881 493.634 171.383C485.049 163.885 480.757 152.584 480.757 137.479V70.975C480.757 69.7797 481.137 68.8017 481.898 68.041C482.767 67.2804 483.745 66.9 484.832 66.9H505.859C507.054 66.9 508.032 67.2804 508.793 68.041C509.662 68.8017 510.097 69.7797 510.097 70.975V137.316C510.097 144.379 511.727 149.704 514.987 153.29C518.356 156.767 523.191 158.506 529.494 158.506C535.688 158.506 540.469 156.713 543.838 153.127C547.207 149.541 548.891 144.271 548.891 137.316V70.975C548.891 69.7797 549.271 68.8017 550.032 68.041C550.901 67.2804 551.879 66.9 552.966 66.9H574.156C575.351 66.9 576.329 67.2804 577.09 68.041C577.851 68.8017 578.231 69.7797 578.231 70.975V137.479C578.231 152.584 573.884 163.885 565.191 171.383C556.606 178.881 544.762 182.63 529.657 182.63Z"
		fill="#F7F7F7" />
	<path
		d="M603.921 181C602.835 181 601.857 180.62 600.987 179.859C600.227 178.99 599.846 178.012 599.846 176.925V70.975C599.846 69.7797 600.227 68.8017 600.987 68.041C601.857 67.2804 602.835 66.9 603.921 66.9H648.257C662.493 66.9 673.577 70.16 681.509 76.68C689.551 83.0914 693.571 92.2194 693.571 104.064C693.571 111.671 691.778 118.136 688.192 123.461C684.606 128.786 679.662 132.861 673.359 135.686L695.69 175.784C696.016 176.436 696.179 177.034 696.179 177.577C696.179 178.446 695.799 179.261 695.038 180.022C694.386 180.674 693.626 181 692.756 181H671.077C667.926 181 665.698 179.533 664.394 176.599L645.812 140.739H629.186V176.925C629.186 178.12 628.752 179.098 627.882 179.859C627.122 180.62 626.144 181 624.948 181H603.921ZM647.931 117.593C652.93 117.593 656.733 116.398 659.341 114.007C661.949 111.508 663.253 108.085 663.253 103.738C663.253 99.3914 661.949 95.9684 659.341 93.469C656.842 90.861 653.039 89.557 647.931 89.557H629.186V117.593H647.931Z"
		fill="#F7F7F7" />
	<path
		d="M716.621 181C715.534 181 714.556 180.62 713.687 179.859C712.926 178.99 712.546 178.012 712.546 176.925V70.975C712.546 69.7797 712.926 68.8017 713.687 68.041C714.556 67.2804 715.534 66.9 716.621 66.9H738.463C739.658 66.9 740.636 67.2804 741.397 68.041C742.266 68.8017 742.701 69.7797 742.701 70.975V176.925C742.701 178.12 742.266 179.098 741.397 179.859C740.636 180.62 739.658 181 738.463 181H716.621Z"
		fill="#F7F7F7" />
	<path
		d="M143.143 84C143.143 96.1503 133.293 106 121.143 106C108.992 106 99.1426 96.1503 99.1426 84C99.1426 71.8497 108.992 62 121.143 62C133.293 62 143.143 71.8497 143.143 84Z"
		fill="#FFC131" />
	<ellipse cx="84.1426" cy="147" rx="22" ry="22" transform="rotate(180 84.1426 147)" fill="#24C8DB" />
	<path fill-rule="evenodd" clip-rule="evenodd"
		d="M166.738 154.548C157.86 160.286 148.023 164.269 137.757 166.341C139.858 160.282 141 153.774 141 147C141 144.543 140.85 142.121 140.558 139.743C144.975 138.204 149.215 136.139 153.183 133.575C162.73 127.404 170.292 118.608 174.961 108.244C179.63 97.8797 181.207 86.3876 179.502 75.1487C177.798 63.9098 172.884 53.4021 165.352 44.8883C157.82 36.3744 147.99 30.2165 137.042 27.1546C126.095 24.0926 114.496 24.2568 103.64 27.6274C92.7839 30.998 83.1319 37.4317 75.8437 46.1553C74.9102 47.2727 74.0206 48.4216 73.176 49.5993C61.9292 50.8488 51.0363 54.0318 40.9629 58.9556C44.2417 48.4586 49.5653 38.6591 56.679 30.1442C67.0505 17.7298 80.7861 8.57426 96.2354 3.77762C111.685 -1.01901 128.19 -1.25267 143.769 3.10474C159.348 7.46215 173.337 16.2252 184.056 28.3411C194.775 40.457 201.767 55.4101 204.193 71.404C206.619 87.3978 204.374 103.752 197.73 118.501C191.086 133.25 180.324 145.767 166.738 154.548ZM41.9631 74.275L62.5557 76.8042C63.0459 72.813 63.9401 68.9018 65.2138 65.1274C57.0465 67.0016 49.2088 70.087 41.9631 74.275Z"
		fill="#FFC131" />
	<path fill-rule="evenodd" clip-rule="evenodd"
		d="M38.4045 76.4519C47.3493 70.6709 57.2677 66.6712 67.6171 64.6132C65.2774 70.9669 64 77.8343 64 85.0001C64 87.1434 64.1143 89.26 64.3371 91.3442C60.0093 92.8732 55.8533 94.9092 51.9599 97.4256C42.4128 103.596 34.8505 112.392 30.1816 122.756C25.5126 133.12 23.9357 144.612 25.6403 155.851C27.3449 167.09 32.2584 177.598 39.7906 186.112C47.3227 194.626 57.153 200.784 68.1003 203.846C79.0476 206.907 90.6462 206.743 101.502 203.373C112.359 200.002 122.011 193.568 129.299 184.845C130.237 183.722 131.131 182.567 131.979 181.383C143.235 180.114 154.132 176.91 164.205 171.962C160.929 182.49 155.596 192.319 148.464 200.856C138.092 213.27 124.357 222.426 108.907 227.222C93.458 232.019 76.9524 232.253 61.3736 227.895C45.7948 223.538 31.8055 214.775 21.0867 202.659C10.3679 190.543 3.37557 175.59 0.949823 159.596C-1.47592 143.602 0.768139 127.248 7.41237 112.499C14.0566 97.7497 24.8183 85.2327 38.4045 76.4519ZM163.062 156.711L163.062 156.711C162.954 156.773 162.846 156.835 162.738 156.897C162.846 156.835 162.954 156.773 163.062 156.711Z"
		fill="#24C8DB" />
</svg>

<svg xmlns="http://www.w3.org/2000/svg" width="743" height="231" fill="none"><path fill="#F7F7F7" d="M305.729 181q-1.629 0-2.934-1.141-1.14-1.304-1.141-2.934V92.491H272.64q-1.629 0-2.934-1.141-1.14-1.304-1.141-2.934V70.975q0-1.792 1.141-2.934 1.305-1.14 2.934-1.141h87.694q1.794 0 2.934 1.141 1.141 1.14 1.141 2.934v17.441q0 1.792-1.141 2.934-1.14 1.14-2.934 1.141H331.32v84.434q0 1.63-1.141 2.934-1.14 1.141-2.934 1.141zm55.354 0q-1.304 0-2.445-.978-.978-1.142-.978-2.445 0-.978.163-1.467l38.305-104.646q.49-1.956 2.119-3.26 1.63-1.305 4.238-1.304h24.124q2.609 0 4.238 1.304t2.119 3.26l38.142 104.646.326 1.467q0 1.303-1.141 2.445-.978.978-2.445.978h-20.049q-3.912 0-5.216-3.423l-6.357-16.626h-43.521l-6.194 16.626Q385.207 181 381.132 181zm68.623-43.521-15.159-43.032-15.159 43.032zm99.951 45.151q-22.983 0-36.023-11.247-12.877-11.247-12.877-33.904V70.975q0-1.792 1.141-2.934 1.303-1.14 2.934-1.141h21.027q1.792 0 2.934 1.141 1.304 1.14 1.304 2.934v66.341q0 10.595 4.89 15.974 5.053 5.216 14.507 5.216 9.29 0 14.344-5.379 5.053-5.379 5.053-15.811V70.975q0-1.792 1.141-2.934 1.304-1.14 2.934-1.141h21.19q1.793 0 2.934 1.141 1.141 1.14 1.141 2.934v66.504q0 22.657-13.04 33.904-12.877 11.247-35.534 11.247m74.264-1.63q-1.629 0-2.934-1.141-1.14-1.304-1.141-2.934V70.975q0-1.792 1.141-2.934 1.305-1.14 2.934-1.141h44.336q21.354 0 33.252 9.78 12.063 9.617 12.062 27.384 0 11.41-5.379 19.397t-14.833 12.225l22.331 40.098q.489.978.489 1.793 0 1.303-1.141 2.445-.978.978-2.282.978h-21.679q-4.727 0-6.683-4.401l-18.582-35.86h-16.626v36.186q0 1.793-1.304 2.934-1.14 1.141-2.934 1.141zm44.01-63.407q7.498 0 11.41-3.586 3.912-3.749 3.912-10.269t-3.912-10.269q-3.748-3.912-11.41-3.912h-18.745v28.036zM716.621 181q-1.63 0-2.934-1.141-1.141-1.304-1.141-2.934V70.975q0-1.792 1.141-2.934 1.303-1.14 2.934-1.141h21.842q1.793 0 2.934 1.141 1.304 1.14 1.304 2.934v105.95q0 1.793-1.304 2.934-1.141 1.141-2.934 1.141z"/><path fill="#FFC131" d="M143.143 84c0 12.15-9.85 22-22 22s-22-9.85-22-22 9.849-22 22-22 22 9.85 22 22"/><circle cx="84.143" cy="147" r="22" fill="#24C8DB" transform="rotate(180 84.143 147)"/><path fill="#FFC131" fill-rule="evenodd" d="M166.738 154.548a84 84 0 0 1-28.981 11.793A59 59 0 0 0 141 147c0-2.457-.15-4.879-.442-7.257a59.035 59.035 0 0 0 38.944-64.594 59.02 59.02 0 0 0-42.46-47.994 59.03 59.03 0 0 0-63.866 22.444 98 98 0 0 0-32.213 9.357 84 84 0 1 1 125.775 95.592M41.963 74.275l20.593 2.53a59 59 0 0 1 2.658-11.678 84 84 0 0 0-23.25 9.148" clip-rule="evenodd"/><path fill="#24C8DB" fill-rule="evenodd" d="M38.405 76.452a84 84 0 0 1 29.212-11.839A58.9 58.9 0 0 0 64 85q.001 3.216.337 6.344a59.02 59.02 0 0 0-34.155 31.412 59.03 59.03 0 0 0 9.609 63.356 59.027 59.027 0 0 0 92.188-4.729 98 98 0 0 0 32.226-9.421 83.99 83.99 0 0 1-55.298 55.26A83.995 83.995 0 0 1 .95 159.596a84 84 0 0 1 37.454-83.144m124.657 80.259-.324.186z" clip-rule="evenodd"/></svg>
